lib/components/NewIcon/assets/Loader.svg

<svg viewBox="0 0 24 24" xmlns="http://www.w3.org/2000/svg">
<path d="M11.9999 2V6.44444M19.071 4.92893L15.9283 8.07163M22 12.0002H17.5555M19.071 19.071L15.9283 15.9283M11.9999 17.5556V22M8.07154 15.9284L4.92883 19.0711M6.44446 12.0002H2" stroke='currentColor' stroke-linecap="round"/>
</svg>

<svg xmlns="http://www.w3.org/2000/svg" viewBox="0 0 24 24"><path stroke="currentColor" stroke-linecap="round" d="M12 2v4.444M19.07 4.93l-3.143 3.143M22 12h-4.445m1.516 7.071-3.143-3.143M12 17.556V22m-3.928-6.072-3.143 3.143m1.515-7.07H2"/></svg>
